symbolic/16x16/places/folder-remote.svg

<svg xmlns="http://www.w3.org/2000/svg" width="16" height="16"><defs><style id="current-color-scheme" type="text/css"></style></defs><path style="fill:currentColor;color:#323a41" d="M7 3a5.093 5.093 0 0 0-4 4H0v2h3a5.104 5.104 0 0 0 4 4zm2 0v10a5.093 5.093 0 0 0 4-4h3V7h-3a5.104 5.104 0 0 0-4-4z"/></svg>

<svg xmlns="http://www.w3.org/2000/svg" width="16" height="16" version="1.1">
 <defs>
  <style id="current-color-scheme" type="text/css">
   .ColorScheme-Text { color:#323a41; } .ColorScheme-Highlight { color:#4285f4; } .ColorScheme-NeutralText { color:#ff9800; } .ColorScheme-PositiveText { color:#4caf50; } .ColorScheme-NegativeText { color:#f44336; }
  </style>
 </defs>
 <path style="fill:currentColor" class="ColorScheme-Text" d="M 7,3 C 4.979,3.404 3.404,4.979 3,7 H 0 V 9 H 3 C 3.405,11.018 4.982,12.595 7,13 Z M 9,3 V 13 C 11.021,12.596 12.596,11.021 13,9 H 16 V 7 H 13 C 12.595,4.982 11.018,3.405 9,3 Z"/>
</svg>
